X:1
T:Migdol, LM
T:Migdol, LM
T:Lowell Mason, 1840
T:Public Domain Courtesy of the Cyber Hymnal™
C:Lowell Mason, 1840
Z:Public Domain
Z:Courtesy of the Cyber Hymnal™
%%score ( 1 2 ) ( 3 4 )
L:1/8
Q:1/4=115
M:3/4
K:A
V:1 treble 
V:2 treble 
V:3 bass 
V:4 bass 
V:1
 [CE]2 [CE]2 [CA]2 | [DF]4 [FB]2 | [EA]4 [EG]2 | [EA]4 [Ac]2 | ([GB]3 [Ac]) ([GB][FA]) | %5
 (G2 A2) [EB]2 | ([FA]2 [EG]2) [^DF]2 | E3 [GB] [Ac][GB] | [Ac]3 [GB] [FA][FB] | (A2 G2) [EA]2 | %10
 [FA]4 [DF]2 | ([CE]2 [EA]2) [Ac]2 | (B3 A) (cB) | [EA]6 |] %14
V:2
 x6 | x6 | x6 | x6 | x6 | E4 x2 | x6 | E3 x3 | x6 | E4 x2 | x6 | x6 | E4 E2 | x6 |] %14
V:3
 [A,,A,]2 [A,,A,]2 [A,,A,]2 | [D,A,]4 [B,,D]2 | [E,C]4 [E,B,]2 | [A,,C]4 [A,,E]2 | [E,E]4 [E,B,]2 | %5
 ([E,B,]2 [C,C]2) [G,,B,]2 | ([A,,C]2 [B,,B,]2) (B,A,) | [E,G,]3 [E,E] [A,E][E,E] | %8
 [A,E]3 [E,D] [F,C][D,D] | (C2 B,2) [C,A,]2 | [D,A,]4 [D,A,]2 | (A,2 C2) [A,,E]2 | (D3 C) (ED) | %13
 [A,,C]6 |] %14
V:4
 x6 | x6 | x6 | x6 | x6 | x6 | x4 B,,2 | x6 | x6 | E,4 x2 | x6 | A,,4 x2 | E,4 E,2 | x6 |] %14

